;FLAVOR:Marlin
;TIME:598
;Filament used: 0.0629636m, 0.0294837m, 0.0421164m, 0.0421083m
;Layer height: 0.1
;MINX:30.88
;MINY:24.77
;MINZ:0.3
;MAXX:154.221
;MAXY:107.345
;MAXZ:6
;POSTPROCESSED
;Generated with Cura_SteamEngine 4.8.0
T0
;M104 S200
;M104 T1 S175
;M104 T2 S175
;M104 T3 S175
M105
;M109 S200
M105
;M109 T1 S175
M105
;M109 T2 S175
M105
;M109 T3 S175
M82 ;absolute extrusion mode
; -- START GCODE --
G21                     ;set units to millimetres
G90                     ;set to absolute positioning
M106 S0                 ;set fan speed to zero (turned off)
G28 X0 Y0               ;move to the X/Y origin (Home)
G28 Z0                  ;move to the Z origin (Home)
G1 Z15.0 F1200          ;move Z to position 15.0 mm
G92 E0                  ;zero the extruded length
G1 E20 F200             ;extrude 20mm of feed stock
G92 E0                  ;zero the extruded length again
G1 F7200                ;set feedrate to 120 mm/s
M218 T1 X111 Y0 Z2
M218 T2 X111 Y71 Z5
M218 T3 X0 Y71 Z10
; -- end of START GCODE --
G92 E0
G92 E0
G1 F1500 E-6.5
;LAYER_COUNT:48
;LAYER:0
M107
;M104 T1 S200
;M104 T2 S200
;M104 T3 S200
;MESH:cubo 5x5x5.stl(4)
G0 F3600 X152.945 Y106.945 Z0.3
;TYPE:WALL-INNER
G1 F1500 E0
G1 F1800 X149.145 Y106.945 E0.18958
G1 X149.145 Y103.145 E0.37917
G1 X152.945 Y103.145 E0.56875
G1 X152.945 Y106.945 E0.75833
G0 F3600 X153.345 Y107.345
;TYPE:WALL-OUTER
G1 F1800 X148.745 Y107.345 E0.98783
G1 X148.745 Y102.745 E1.21732
G1 X153.345 Y102.745 E1.44682
G1 X153.345 Y107.345 E1.67631
G0 F3600 X153.145 Y107.345
G0 X152.555 Y106.555
;TYPE:SKIN
G1 F1800 X149.535 Y106.555 E1.82698
G1 X149.535 Y103.535 E1.97765
G1 X152.555 Y103.535 E2.12832
G1 X152.555 Y106.555 E2.27898
G0 F3600 X152.373 Y104.29
G1 F1800 X151.798 Y103.715 E2.31955
G0 F3600 X151.233 Y103.715
G1 F1800 X152.373 Y104.856 E2.40002
G0 F3600 X152.373 Y105.421
G1 F1800 X150.667 Y103.715 E2.52039
G0 F3600 X150.101 Y103.715
G1 F1800 X152.373 Y105.987 E2.68069
G0 F3600 X152.194 Y106.374
G1 F1800 X149.714 Y103.893 E2.8557
G0 F3600 X149.714 Y104.459
G1 F1800 X151.629 Y106.374 E2.99082
G0 F3600 X151.063 Y106.374
G1 F1800 X149.714 Y105.025 E3.086
G0 F3600 X149.714 Y105.59
G1 F1800 X150.497 Y106.374 E3.14128
G0 F3600 X149.932 Y106.374
G1 F1800 X149.714 Y106.156 E3.15666
;M104 S185
G1 F1200 E-12.84334
G1 F600 Z1.3
G92 E0
T1
G92 E0
M105
;M109 S200
;M104 T0 S190
M107 P1
G1 F1500 E-6.5
G1 F600 Z0.3
;MESH:cubo 5x5x5.stl(3)
G0 F3600 X35.9 Y106.9
;TYPE:WALL-INNER
G1 F1500 E0
G1 F1800 X32.1 Y106.9 E0.18958
G1 X32.1 Y103.1 E0.37917
G1 X35.9 Y103.1 E0.56875
G1 X35.9 Y106.9 E0.75833
G0 F3600 X36.3 Y107.3
;TYPE:WALL-OUTER
G1 F1800 X31.7 Y107.3 E0.98783
G1 X31.7 Y102.7 E1.21732
G1 X36.3 Y102.7 E1.44682
G1 X36.3 Y107.3 E1.67631
G0 F3600 X36.1 Y107.3
G0 X35.51 Y106.51
;TYPE:SKIN
G1 F1800 X32.49 Y106.51 E1.82698
G1 X32.49 Y103.49 E1.97765
G1 X35.51 Y103.49 E2.12832
G1 X35.51 Y106.51 E2.27898
G0 F3600 X35.329 Y103.902
G1 F1800 X35.096 Y103.669 E2.29542
G0 F3600 X34.53 Y103.669
G1 F1800 X35.329 Y104.468 E2.3518
G0 F3600 X35.329 Y105.034
G1 F1800 X33.964 Y103.669 E2.44811
G0 F3600 X33.398 Y103.669
G1 F1800 X35.329 Y105.6 E2.58435
G0 F3600 X35.329 Y106.165
G1 F1800 X32.833 Y103.669 E2.76045
G0 F3600 X32.669 Y104.071
G1 F1800 X34.927 Y106.329 E2.91977
G0 F3600 X34.362 Y106.329
G1 F1800 X32.669 Y104.636 E3.03922
G0 F3600 X32.669 Y105.202
G1 F1800 X33.796 Y106.329 E3.11873
G0 F3600 X33.23 Y106.329
G1 F1800 X32.669 Y105.768 E3.15832
;M104 S185
G1 F1200 E-12.84168
G1 F600 Z1.3
G92 E0
T2
G92 E0
M105
;M109 S200
;M104 T1 S190
M107 P2
G1 F1500 E-6.5
G1 F600 Z0.3
;MESH:cubo 5x5x5.stl(1)
G0 F3600 X35.945 Y30.145
;TYPE:WALL-INNER
G1 F1500 E0
G1 F1800 X32.145 Y30.145 E0.18958
G1 X32.145 Y26.345 E0.37917
G1 X35.945 Y26.345 E0.56875
G1 X35.945 Y30.145 E0.75833
G0 F3600 X36.345 Y30.545
;TYPE:WALL-OUTER
G1 F1800 X31.745 Y30.545 E0.98783
G1 X31.745 Y25.945 E1.21732
G1 X36.345 Y25.945 E1.44682
G1 X36.345 Y30.545 E1.67631
G0 F3600 X36.145 Y30.545
G0 X35.555 Y29.755
;TYPE:SKIN
G1 F1800 X32.535 Y29.755 E1.82698
G1 X32.535 Y26.735 E1.97765
G1 X35.555 Y26.735 E2.12832
G1 X35.555 Y29.755 E2.27898
G0 F3600 X35.374 Y27.291
G1 F1800 X34.998 Y26.915 E2.30551
G0 F3600 X34.432 Y26.915
G1 F1800 X35.374 Y27.857 E2.37198
G0 F3600 X35.374 Y28.422
G1 F1800 X33.867 Y26.915 E2.4783
G0 F3600 X33.301 Y26.915
G1 F1800 X35.374 Y28.988 E2.62456
G0 F3600 X35.374 Y29.554
G1 F1800 X32.735 Y26.915 E2.81076
G0 F3600 X32.714 Y27.459
G1 F1800 X34.83 Y29.575 E2.96006
G0 F3600 X34.264 Y29.575
G1 F1800 X32.714 Y28.025 E3.06942
G0 F3600 X32.714 Y28.591
G1 F1800 X33.698 Y29.575 E3.13884
G0 F3600 X33.133 Y29.575
G1 F1800 X32.714 Y29.156 E3.16841
;M104 S185
G1 F1200 E-12.83159
G1 F600 Z1.3
G92 E0
T3
G92 E0
M105
;M109 S200
;M104 T2 S190
M107 P3
G1 F1500 E-6.5
;MESH:cubo 5x5x5.stl(2)
G0 F3600 X143.714 Y29.156 Z1.3
G1 F600 Z0.3
G0 F3600 X141.88 Y29.156
G0 X141.892 Y25.092
G0 X147.903 Y24.77
G0 X154.209 Y24.77
G0 X154.221 Y29.823
G0 X152.928 Y29.795
G0 X152.956 Y29.823
;M104 S185
;TYPE:WALL-INNER
G1 F1500 E0
G1 F908.7 X149.156 Y29.823 E0.18958
G1 X149.156 Y26.023 E0.37917
G1 X152.956 Y26.023 E0.56875
G1 X152.956 Y29.823 E0.75833
G0 F3600 X153.356 Y30.223
;TYPE:WALL-OUTER
G1 F908.7 X148.756 Y30.223 E0.98783
G1 X148.756 Y25.623 E1.21732
G1 X153.356 Y25.623 E1.44682
G1 X153.356 Y30.223 E1.67631
G0 F3600 X153.156 Y30.223
G0 X152.566 Y29.433
;TYPE:SKIN
G1 F908.7 X149.546 Y29.433 E1.82698
G1 X149.546 Y26.413 E1.97765
G1 X152.566 Y26.413 E2.12832
G1 X152.566 Y29.433 E2.27898
G0 F3600 X152.385 Y27.079
G1 F908.7 X151.898 Y26.592 E2.31334
G0 F3600 X151.332 Y26.592
G1 F908.7 X152.385 Y27.644 E2.3876
G0 F3600 X152.385 Y28.21
G1 F908.7 X150.767 Y26.592 E2.50176
G0 F3600 X150.201 Y26.592
G1 F908.7 X152.385 Y28.776 E2.65586
G0 F3600 X152.295 Y29.252
G1 F908.7 X149.724 Y26.681 E2.83725
G0 F3600 X149.724 Y27.247
G1 F908.7 X151.73 Y29.252 E2.97875
G0 F3600 X151.164 Y29.252
G1 F908.7 X149.724 Y27.813 E3.08032
G0 F3600 X149.724 Y28.378
G1 F908.7 X150.598 Y29.252 E3.14198
G0 F3600 X150.033 Y29.252
G1 F908.7 X149.724 Y28.944 E3.16375
;MESH:NONMESH
G0 F600 X149.724 Y28.944 Z0.4
G0 F3600 X152.886 Y29.753
G0 X152.956 Y29.823
;TIME_ELAPSED:21.041356
;LAYER:1
M106 S255 P3
;TYPE:WALL-INNER
;MESH:cubo 5x5x5.stl(2)
G1 F2700 X149.156 Y29.823 E3.22694
G1 X149.156 Y26.023 E3.29014
G1 X152.956 Y26.023 E3.35333
G1 X152.956 Y29.823 E3.41653
G0 F5400 X153.356 Y30.223
;TYPE:WALL-OUTER
G1 F1800 X148.756 Y30.223 E3.49302
G1 X148.756 Y25.623 E3.56952
G1 X153.356 Y25.623 E3.64602
G1 X153.356 Y30.223 E3.72252
G0 F5400 X153.156 Y30.223
G0 X152.566 Y29.433
;TYPE:SKIN
G1 F1800 X149.546 Y29.433 E3.77274
G1 X149.546 Y26.413 E3.82297
G1 X152.566 Y26.413 E3.87319
G1 X152.566 Y29.433 E3.92341
G0 F5400 X152.385 Y28.91
G1 F1800 X152.042 Y29.252 E3.93147
G0 F5400 X151.477 Y29.252
G1 F1800 X152.385 Y28.344 E3.95282
G0 F5400 X152.385 Y27.779
G1 F1800 X150.911 Y29.252 E3.98748
G0 F5400 X150.345 Y29.252
G1 F1800 X152.385 Y27.213 E4.03544
G0 F5400 X152.385 Y26.647
G1 F1800 X149.78 Y29.252 E4.09671
G0 F5400 X149.724 Y28.742
G1 F1800 X151.874 Y26.592 E4.14727
G0 F5400 X151.308 Y26.592
G1 F1800 X149.724 Y28.176 E4.18452
G0 F5400 X149.724 Y27.61
G1 F1800 X150.743 Y26.592 E4.20848
G0 F5400 X150.177 Y26.592
G1 F1800 X149.724 Y27.045 E4.21913
G1 F1200 E-11.78087
G1 F600 Z1.4
G92 E0
T0
G92 E0
M105
;M109 S190
;M104 T3 S190
M106 S255
G1 F1200 E9.5
G1 F600 Z0.4
;MESH:cubo 5x5x5.stl
G0 F5400 X146.817 Y106.817
;M104 S200
;TYPE:WALL-INNER
G1 F1500 E16
G1 F2700 X143.273 Y106.817 E16.05894
G1 X143.273 Y103.273 E16.11787
G1 X146.817 Y103.273 E16.17681
G1 X146.817 Y106.817 E16.23575
G0 F5400 X147.217 Y107.217
;TYPE:WALL-OUTER
G1 F1800 X142.873 Y107.217 E16.30799
G1 X142.873 Y102.873 E16.38023
G1 X147.217 Y102.873 E16.45247
G1 X147.217 Y107.217 E16.52471
G0 F5400 X147.017 Y107.217
G0 X146.427 Y106.427
;M104 S185
;TYPE:SKIN
G1 F1800 X143.663 Y106.427 E16.57068
G1 X143.663 Y103.663 E16.61664
G1 X146.427 Y103.663 E16.66261
G1 X146.427 Y106.427 E16.70857
G0 F5400 X146.246 Y106.049
G1 F1800 X146.048 Y106.247 E16.71323
G0 F5400 X145.482 Y106.247
G1 F1800 X146.246 Y105.483 E16.7312
G0 F5400 X146.246 Y104.917
G1 F1800 X144.917 Y106.247 E16.76247
G0 F5400 X144.351 Y106.247
G1 F1800 X146.246 Y104.351 E16.80705
G0 F5400 X146.19 Y103.842
G1 F1800 X143.842 Y106.19 E16.86227
G0 F5400 X143.842 Y105.624
G1 F1800 X145.624 Y103.842 E16.90418
G0 F5400 X145.058 Y103.842
G1 F1800 X143.842 Y105.059 E16.93279
G0 F5400 X143.842 Y104.493
G1 F1800 X144.493 Y103.842 E16.9481
G0 F5400 X143.927 Y103.842
G1 F1800 X143.842 Y103.927 E16.9501
G1 F1500 E10.4501
;MESH:cubo 5x5x5.stl(4)
G0 F5400 X146.803 Y106.803
G0 X149.165 Y106.803
G0 X152.875 Y106.875
G0 X152.945 Y106.945
;TYPE:WALL-INNER
G1 F1500 E16.9501
G1 F2700 X149.145 Y106.945 E17.01329
G1 X149.145 Y103.145 E17.07649
G1 X152.945 Y103.145 E17.13968
G1 X152.945 Y106.945 E17.20287
G0 F5400 X153.345 Y107.345
;TYPE:WALL-OUTER
G1 F1800 X148.745 Y107.345 E17.27937
G1 X148.745 Y102.745 E17.35587
G1 X153.345 Y102.745 E17.43237
G1 X153.345 Y107.345 E17.50887
G0 F5400 X153.145 Y107.345
G0 X152.555 Y106.555
;TYPE:SKIN
G1 F1800 X149.535 Y106.555 E17.55909
G1 X149.535 Y103.535 E17.60931
G1 X152.555 Y103.535 E17.65954
G1 X152.555 Y106.555 E17.70976
G0 F5400 X152.373 Y106.144
G1 F1800 X152.143 Y106.375 E17.71518
G0 F5400 X151.577 Y106.375
G1 F1800 X152.373 Y105.578 E17.73391
G0 F5400 X152.373 Y105.013
G1 F1800 X151.011 Y106.375 E17.76594
G0 F5400 X150.446 Y106.375
G1 F1800 X152.373 Y104.447 E17.81128
G0 F5400 X152.373 Y103.881
G1 F1800 X149.88 Y106.375 E17.86992
G0 F5400 X149.714 Y105.975
G1 F1800 X151.974 Y103.714 E17.92308
G0 F5400 X151.409 Y103.714
G1 F1800 X149.714 Y105.409 E17.96295
G0 F5400 X149.714 Y104.844
G1 F1800 X150.843 Y103.714 E17.98951
G0 F5400 X150.277 Y103.714
G1 F1800 X149.714 Y104.278 E18.00276
G1 F1200 E2.00276
G1 F600 Z1.4
G92 E0
T2
G92 E0
M105
;M109 S190
;M104 T0 S190
M106 S255 P2
G1 F1200 E9.5
;MESH:cubo 5x5x5.stl(1)
G0 F5400 X38.714 Y33.278 Z1.4
G1 F600 Z0.4
G0 F5400 X38.714 Y37.21
G0 X31.02 Y37.07
G0 X30.88 Y30.145
G0 X32.173 Y30.117
G0 X35.875 Y30.075
G0 X35.945 Y30.145
;M104 S200
;TYPE:WALL-INNER
G1 F1500 E16
G1 F1192.8 X32.145 Y30.145 E16.06319
G1 X32.145 Y26.345 E16.12639
G1 X35.945 Y26.345 E16.18958
G1 X35.945 Y30.145 E16.25278
G0 F5400 X36.345 Y30.545
;M104 S185
;TYPE:WALL-OUTER
G1 F795.2 X31.745 Y30.545 E16.32928
G1 X31.745 Y25.945 E16.40577
G1 X36.345 Y25.945 E16.48227
G1 X36.345 Y30.545 E16.55877
G0 F5400 X36.145 Y30.545
G0 X35.555 Y29.755
;TYPE:SKIN
G1 F795.2 X32.535 Y29.755 E16.60899
G1 X32.535 Y26.735 E16.65922
G1 X35.555 Y26.735 E16.70944
G1 X35.555 Y29.755 E16.75966
G0 F5400 X35.374 Y29.264
G1 F795.2 X35.063 Y29.575 E16.76698
G0 F5400 X34.497 Y29.575
G1 F795.2 X35.374 Y28.698 E16.7876
G0 F5400 X35.374 Y28.132
G1 F795.2 X33.932 Y29.575 E16.82153
G0 F5400 X33.366 Y29.575
G1 F795.2 X35.374 Y27.567 E16.86875
G0 F5400 X35.374 Y27.001
G1 F795.2 X32.8 Y29.575 E16.92929
G0 F5400 X32.714 Y29.095
G1 F795.2 X34.895 Y26.915 E16.98057
G0 F5400 X34.329 Y26.915
G1 F795.2 X32.714 Y28.53 E17.01855
G0 F5400 X32.714 Y27.964
G1 F795.2 X33.763 Y26.915 E17.04322
G0 F5400 X33.198 Y26.915
G1 F795.2 X32.714 Y27.398 E17.05459
;MESH:NONMESH
G0 F600 X32.714 Y27.398 Z0.5
G0 F5400 X35.875 Y30.075
G0 X35.945 Y30.145
;TIME_ELAPSED:36.048666
;LAYER:2
;TYPE:WALL-INNER
;MESH:cubo 5x5x5.stl(1)
G1 F3600 X32.145 Y30.145 E17.11779
G1 X32.145 Y26.345 E17.18098
G1 X35.945 Y26.345 E17.24418
G1 X35.945 Y30.145 E17.30737
G0 F7200 X36.345 Y30.545
;TYPE:WALL-OUTER
G1 F1800 X31.745 Y30.545 E17.38387
G1 X31.745 Y25.945 E17.46037
G1 X36.345 Y25.945 E17.53687
G1 X36.345 Y30.545 E17.61337
G0 F7200 X36.145 Y30.545
G0 X35.555 Y29.755
;TYPE:SKIN
G1 F1800 X32.535 Y29.755 E17.66359
G1 X32.535 Y26.735 E17.71381
G1 X35.555 Y26.735 E17.76403
G1 X35.555 Y29.755 E17.81426
G0 F7200 X35.374 Y27.291
G1 F1800 X34.998 Y26.915 E17.8231
G0 F7200 X34.432 Y26.915
G1 F1800 X35.374 Y27.857 E17.84525
G0 F7200 X35.374 Y28.422
G1 F1800 X33.867 Y26.915 E17.8807
G0 F7200 X33.301 Y26.915
G1 F1800 X35.374 Y28.988 E17.92945
G0 F7200 X35.374 Y29.554
G1 F1800 X32.735 Y26.915 E17.99152
G0 F7200 X32.714 Y27.459
G1 F1800 X34.83 Y29.575 E18.04128
G0 F7200 X34.264 Y29.575
G1 F1800 X32.714 Y28.025 E18.07773
G0 F7200 X32.714 Y28.591
G1 F1800 X33.698 Y29.575 E18.10088
G0 F7200 X33.133 Y29.575
G1 F1800 X32.714 Y29.156 E18.11073
G1 F1200 E2.11073
G1 F600 Z1.5
G92 E0
T0
G92 E0
M105
;M109 S190
;M104 T2 S190
M106 S255
G1 F1200 E9.5
G1 F600 Z0.5
;MESH:cubo 5x5x5.stl(4)
G0 F7200 X152.945 Y106.945
;M104 S200
;TYPE:WALL-INNER
G1 F1500 E16
G1 F3600 X149.145 Y106.945 E16.06319
G1 X149.145 Y103.145 E16.12639
G1 X152.945 Y103.145 E16.18958
G1 X152.945 Y106.945 E16.25278
G0 F7200 X153.345 Y107.345
;TYPE:WALL-OUTER
G1 F1800 X148.745 Y107.345 E16.32928
G1 X148.745 Y102.745 E16.40577
G1 X153.345 Y102.745 E16.48227
G1 X153.345 Y107.345 E16.55877
G0 F7200 X153.145 Y107.345
G0 X152.555 Y106.555
;TYPE:SKIN
G1 F1800 X149.535 Y106.555 E16.60899
G1 X149.535 Y103.535 E16.65922
G1 X152.555 Y103.535 E16.70944
G1 X152.555 Y106.555 E16.75966
G0 F7200 X152.373 Y104.29
G1 F1800 X151.798 Y103.715 E16.77318
G0 F7200 X151.233 Y103.715
G1 F1800 X152.373 Y104.856 E16.80001
G0 F7200 X152.373 Y105.421
G1 F1800 X150.667 Y103.715 E16.84013
G0 F7200 X150.101 Y103.715
G1 F1800 X152.373 Y105.987 E16.89356
G0 F7200 X152.194 Y106.374
G1 F1800 X149.714 Y103.893 E16.9519
G0 F7200 X149.714 Y104.459
G1 F1800 X151.629 Y106.374 E16.99694
G0 F7200 X151.063 Y106.374
G1 F1800 X149.714 Y105.025 E17.02867
G0 F7200 X149.714 Y105.59
G1 F1800 X150.497 Y106.374 E17.04709
G0 F7200 X149.932 Y106.374
G1 F1800 X149.714 Y106.156 E17.05222
;M104 S185
G1 F1200 E1.05222
G1 F600 Z1.5
G92 E0
T1
G92 E0
M105
;M109 S190
;M104 T0 S190
M106 S255 P1
G1 F1200 E9.5
G1 F600 Z0.5
;MESH:cubo 5x5x5.stl(3)
G0 F7200 X35.9 Y106.9
;M104 S200
;TYPE:WALL-INNER
G1 F1500 E16
G1 F3600 X32.1 Y106.9 E16.06319
G1 X32.1 Y103.1 E16.12639
G1 X35.9 Y103.1 E16.18958
G1 X35.9 Y106.9 E16.25278
G0 F7200 X36.3 Y107.3
;TYPE:WALL-OUTER
G1 F1800 X31.7 Y107.3 E16.32928
G1 X31.7 Y102.7 E16.40577
G1 X36.3 Y102.7 E16.48227
G1 X36.3 Y107.3 E16.55877
G0 F7200 X36.1 Y107.3
G0 X35.51 Y106.51
;TYPE:SKIN
G1 F1800 X32.49 Y106.51 E16.60899
G1 X32.49 Y103.49 E16.65922
G1 X35.51 Y103.49 E16.70944
G1 X35.51 Y106.51 E16.75966
G0 F7200 X35.329 Y103.902
G1 F1800 X35.096 Y103.669 E16.76514
G0 F7200 X34.53 Y103.669
G1 F1800 X35.329 Y104.468 E16.78393
G0 F7200 X35.329 Y105.034
G1 F1800 X33.964 Y103.669 E16.81604
G0 F7200 X33.398 Y103.669
G1 F1800 X35.329 Y105.6 E16.86145
G0 F7200 X35.329 Y106.165
G1 F1800 X32.833 Y103.669 E16.92015
G0 F7200 X32.669 Y104.071
G1 F1800 X34.927 Y106.329 E16.97326
G0 F7200 X34.362 Y106.329
G1 F1800 X32.669 Y104.636 E17.01307
G0 F7200 X32.669 Y105.202
G1 F1800 X33.796 Y106.329 E17.03958
G0 F7200 X33.23 Y106.329
G1 F1800 X32.669 Y105.768 E17.05277
;M104 S185
G1 F1200 E1.05277
G1 F600 Z1.5
G92 E0
T3
G92 E0
M105
;M109 S190
;M104 T1 S190
M106 S255 P3
G1 F1200 E9.5
G1 F600 Z0.5
;MESH:cubo 5x5x5.stl(2)
G0 F7200 X152.956 Y29.823
;M104 S200
;TYPE:WALL-INNER
G1 F1500 E16
G1 F1462.1 X149.156 Y29.823 E16.06319
G1 X149.156 Y26.023 E16.12639
G1 X152.956 Y26.023 E16.18958
G1 X152.956 Y29.823 E16.25278
G0 F7200 X153.356 Y30.223
;M104 S185
;TYPE:WALL-OUTER
G1 F731 X148.756 Y30.223 E16.32928
G1 X148.756 Y25.623 E16.40577
G1 X153.356 Y25.623 E16.48227
G1 X153.356 Y30.223 E16.55877
G0 F7200 X153.156 Y30.223
G0 X152.566 Y29.433
;TYPE:SKIN
G1 F731 X149.546 Y29.433 E16.60899
G1 X149.546 Y26.413 E16.65922
G1 X152.566 Y26.413 E16.70944
