;FLAVOR:Marlin
;TIME:52
;Filament used: 0.00178874m, 0.00178874m, 0.00178874m, 0.00178874m
;Layer height: 0.15
;MINX:55.945
;MINY:50.526
;MINZ:0.3
;MAXX:176.751
;MAXY:134.732
;MAXZ:1.3
;Generated with Cura_SteamEngine 4.8.0
T0
M104 S200
M104 T1 S175
M104 T2 S175
M104 T3 S175
M105
M109 S200
M105
M109 T1 S175
M105
M109 T2 S175
M105
M109 T3 S175
M82 ;absolute extrusion mode

G92 E0
G92 E0
G1 F1500 E-6.5
;LAYER_COUNT:1
;LAYER:0
M107
M104 T1 S200
M104 T2 S200
M104 T3 S200
M104 T1 S190
M104 T2 S190
M104 T3 S190
;MESH:Circuito recto 0.2mm.stl(3)
G0 F3600 X166.951 Y132.332 Z0.3
;TYPE:WALL-OUTER
G1 F1500 E0
G1 F300 X166.951 Y132.726 E0.00958
G1 X176.751 Y132.726 E0.24793
G1 X176.751 Y133.132 E0.25781
G1 X166.951 Y133.132 E0.49616
G1 X166.951 Y133.526 E0.50574
G1 X176.751 Y133.526 E0.74409
G1 X176.751 Y133.932 E0.75397
G1 X166.951 Y133.932 E0.99232
G1 X166.951 Y134.326 E1.0019
G1 X176.751 Y134.326 E1.24025
G1 X176.751 Y134.732 E1.25012
G1 X166.945 Y134.732 E1.48862
G1 X166.945 Y134.726 E1.48877
G1 X176.745 Y134.726 E1.49725
G1 X176.745 Y134.332 E1.49751
G1 X166.945 Y134.332 E1.5062
G1 X166.945 Y133.926 E1.50665
G1 X176.745 Y133.926 E1.51534
G1 X176.745 Y133.532 E1.5156
G1 X166.945 Y133.532 E1.52429
G1 X166.945 Y133.126 E1.52474
G1 X176.745 Y133.126 E1.53344
G1 X176.745 Y132.732 E1.53369
G1 X166.945 Y132.732 E1.54239
G1 X166.945 Y132.326 E1.54283
G1 X176.751 Y132.326 E1.78133
G1 X176.751 Y132.332 E1.78147
G1 X166.951 Y132.332 E1.78874
G0 F3600 X166.951 Y132.43
G1 F1200 E-14.21126
G1 F600 Z1.3
G92 E0
T1
G92 E0
M105
M109 S190
M104 T0 S0
M107 P1
G1 F1500 E-6.5
G1 F600 Z0.3
;MESH:Circuito recto 0.2mm.stl(2)
G0 F3600 X55.951 Y128.732
M104 S200
;TYPE:WALL-OUTER
G1 F1500 E0
G1 F1800 X55.951 Y129.126 E0.00958
G1 X65.751 Y129.126 E0.24793
G1 X65.751 Y129.532 E0.25781
G1 X55.951 Y129.532 E0.49616
G1 X55.951 Y129.926 E0.50574
G1 X65.751 Y129.926 E0.74409
G1 X65.751 Y130.332 E0.75397
G1 X55.951 Y130.332 E0.99232
G1 X55.951 Y130.726 E1.0019
G1 X65.751 Y130.726 E1.24025
G1 X65.751 Y131.132 E1.25012
G1 X55.945 Y131.132 E1.48862
G1 X55.945 Y131.126 E1.48877
M104 S185
G1 X65.745 Y131.126 E1.49725
G1 X65.745 Y130.732 E1.49751
G1 X55.945 Y130.732 E1.5062
G1 X55.945 Y130.326 E1.50665
G1 X65.745 Y130.326 E1.51534
G1 X65.745 Y129.932 E1.5156
G1 X55.945 Y129.932 E1.52429
G1 X55.945 Y129.526 E1.52474
G1 X65.745 Y129.526 E1.53344
G1 X65.745 Y129.132 E1.53369
G1 X55.945 Y129.132 E1.54239
G1 X55.945 Y128.726 E1.54283
G1 X65.751 Y128.726 E1.78133
G1 X65.751 Y128.732 E1.78147
G1 X55.951 Y128.732 E1.78874
G0 F3600 X55.951 Y128.83
G1 F1200 E-14.21126
G1 F600 Z1.3
G92 E0
T2
G92 E0
M105
M109 S190
M104 T1 S0
M107 P2
G1 F1500 E-6.5
G1 F600 Z0.3
;MESH:Circuito recto 0.2mm.stl
G0 F3600 X55.951 Y54.132
M104 S200
;TYPE:WALL-OUTER
G1 F1500 E0
G1 F1800 X55.951 Y54.526 E0.00958
G1 X65.751 Y54.526 E0.24793
G1 X65.751 Y54.932 E0.25781
G1 X55.951 Y54.932 E0.49616
G1 X55.951 Y55.326 E0.50574
G1 X65.751 Y55.326 E0.74409
G1 X65.751 Y55.732 E0.75397
G1 X55.951 Y55.732 E0.99232
G1 X55.951 Y56.126 E1.0019
G1 X65.751 Y56.126 E1.24025
G1 X65.751 Y56.532 E1.25012
G1 X55.945 Y56.532 E1.48862
G1 X55.945 Y56.526 E1.48877
M104 S185
G1 X65.745 Y56.526 E1.49725
G1 X65.745 Y56.132 E1.49751
G1 X55.945 Y56.132 E1.5062
G1 X55.945 Y55.726 E1.50665
G1 X65.745 Y55.726 E1.51534
G1 X65.745 Y55.332 E1.5156
G1 X55.945 Y55.332 E1.52429
G1 X55.945 Y54.926 E1.52474
G1 X65.745 Y54.926 E1.53344
G1 X65.745 Y54.532 E1.53369
G1 X55.945 Y54.532 E1.54239
G1 X55.945 Y54.126 E1.54283
G1 X65.751 Y54.126 E1.78133
G1 X65.751 Y54.132 E1.78147
G1 X55.951 Y54.132 E1.78874
G0 F3600 X55.951 Y54.23
G1 F1200 E-14.21126
G1 F600 Z1.3
G92 E0
T3
G92 E0
M105
M109 S190
M104 T2 S0
M107 P3
G1 F1500 E-6.5
;MESH:Circuito recto 0.2mm.stl(1)
G0 F3600 X166.951 Y54.23 Z1.3
G1 F600 Z0.3
G0 F3600 X166.951 Y50.532
M104 S200
;TYPE:WALL-OUTER
G1 F1500 E0
G1 F1800 X166.951 Y50.926 E0.00958
G1 X176.751 Y50.926 E0.24793
G1 X176.751 Y51.332 E0.25781
G1 X166.951 Y51.332 E0.49616
G1 X166.951 Y51.726 E0.50574
G1 X176.751 Y51.726 E0.74409
G1 X176.751 Y52.132 E0.75397
G1 X166.951 Y52.132 E0.99232
G1 X166.951 Y52.526 E1.0019
G1 X176.751 Y52.526 E1.24025
G1 X176.751 Y52.932 E1.25012
G1 X166.945 Y52.932 E1.48862
G1 X166.945 Y52.926 E1.48877
G1 X176.745 Y52.926 E1.49725
G1 X176.745 Y52.532 E1.49751
G1 X166.945 Y52.532 E1.5062
G1 X166.945 Y52.126 E1.50665
G1 X176.745 Y52.126 E1.51534
G1 X176.745 Y51.732 E1.5156
G1 X166.945 Y51.732 E1.52429
G1 X166.945 Y51.326 E1.52474
G1 X176.745 Y51.326 E1.53344
G1 X176.745 Y50.932 E1.53369
G1 X166.945 Y50.932 E1.54239
G1 X166.945 Y50.526 E1.54283
G1 X176.751 Y50.526 E1.78133
G1 X176.751 Y50.532 E1.78147
G1 X166.951 Y50.532 E1.78874
G0 F3600 X166.951 Y50.63
;TIME_ELAPSED:52.183800
G1 F1500 E-4.71126

M82 ;absolute extrusion mode
M104 S0
;End of Gcode
;SETTING_3 {"global_quality": "[general]\\nversion = 4\\nname = BW_Circuito_4E\\
;SETTING_3 ndefinition = custom\\n\\n[metadata]\\ntype = quality_changes\\nquali
;SETTING_3 ty_type = high\\nsetting_version = 16\\n\\n[values]\\nadhesion_type =
;SETTING_3  none\\nlayer_height = 0.15\\nretraction_combing = off\\n\\n", "extru
;SETTING_3 der_quality": ["[general]\\nversion = 4\\nname = BW_Circuito_4E\\ndef
;SETTING_3 inition = custom\\n\\n[metadata]\\ntype = quality_changes\\nintent_ca
;SETTING_3 tegory = default\\nquality_type = high\\nsetting_version = 16\\nposit
;SETTING_3 ion = 0\\n\\n[values]\\nbottom_layers = 0\\ncool_fan_enabled = False\
;SETTING_3 \ninfill_pattern = zigzag\\ninfill_sparse_density = 0\\nmaterial_fina
;SETTING_3 l_print_temperature = 200\\nmaterial_initial_print_temperature = 200\
;SETTING_3 \nspeed_print = 10\\ntop_layers = 0\\nwall_line_count = 1\\nwall_thic
;SETTING_3 kness = 1\\n\\n", "[general]\\nversion = 4\\nname = BW_Circuito_4E\\n
;SETTING_3 definition = custom\\n\\n[metadata]\\ntype = quality_changes\\nintent
;SETTING_3 _category = default\\nquality_type = high\\nsetting_version = 16\\npo
;SETTING_3 sition = 1\\n\\n[values]\\ninfill_sparse_density = 10\\n\\n", "[gener
;SETTING_3 al]\\nversion = 4\\nname = BW_Circuito_4E\\ndefinition = custom\\n\\n
;SETTING_3 [metadata]\\ntype = quality_changes\\nintent_category = default\\nqua
;SETTING_3 lity_type = high\\nsetting_version = 16\\nposition = 2\\n\\n[values]\
;SETTING_3 \ninfill_sparse_density = 10\\n\\n", "[general]\\nversion = 4\\nname 
;SETTING_3 = BW_Circuito_4E\\ndefinition = custom\\n\\n[metadata]\\ntype = quali
;SETTING_3 ty_changes\\nintent_category = default\\nquality_type = high\\nsettin
;SETTING_3 g_version = 16\\nposition = 3\\n\\n[values]\\ninfill_sparse_density =
;SETTING_3  10\\n\\n"]}
