;FLAVOR:Marlin
;TIME:51
;Filament used: 0.00178874m, 0.00178874m, 0.00178874m, 0.00178874m
;Layer height: 0.15
;MINX:2.929
;MINY:5.923
;MINZ:0.3
;MAXX:123.735
;MAXY:90.129
;MAXZ:1.3
;Generated with Cura_SteamEngine 4.8.0
T0
M104 S200
M104 T1 S175
M104 T2 S175
M104 T3 S175
M105
M109 S200
M105
M109 T1 S175
M105
M109 T2 S175
M105
M109 T3 S175
M82 ;absolute extrusion mode

G92 E0
G92 E0
G1 F1500 E-6.5
;LAYER_COUNT:1
;LAYER:0
M107
M104 T1 S200
M104 T2 S200
M104 T3 S200
M104 T1 S190
M104 T2 S190
M104 T3 S190
;MESH:Circuito recto 0.2mm.stl(3)
G0 F3600 X113.935 Y87.729 Z0.3
;TYPE:WALL-OUTER
G1 F1500 E0
G1 F300 X113.935 Y88.123 E0.00958
G1 X123.735 Y88.123 E0.24793
G1 X123.735 Y88.529 E0.25781
G1 X113.935 Y88.529 E0.49616
G1 X113.935 Y88.923 E0.50574
G1 X123.735 Y88.923 E0.74409
G1 X123.735 Y89.329 E0.75397
G1 X113.935 Y89.329 E0.99232
G1 X113.935 Y89.723 E1.0019
G1 X123.735 Y89.723 E1.24025
G1 X123.735 Y90.129 E1.25012
G1 X113.929 Y90.129 E1.48862
G1 X113.929 Y90.123 E1.48877
G1 X123.729 Y90.123 E1.49725
G1 X123.729 Y89.729 E1.49751
G1 X113.929 Y89.729 E1.5062
G1 X113.929 Y89.323 E1.50665
G1 X123.729 Y89.323 E1.51534
G1 X123.729 Y88.929 E1.5156
G1 X113.929 Y88.929 E1.52429
G1 X113.929 Y88.523 E1.52474
G1 X123.729 Y88.523 E1.53344
G1 X123.729 Y88.129 E1.53369
G1 X113.929 Y88.129 E1.54239
G1 X113.929 Y87.723 E1.54283
G1 X123.735 Y87.723 E1.78133
G1 X123.735 Y87.729 E1.78147
G1 X113.935 Y87.729 E1.78874
G0 F3600 X113.935 Y87.827
G1 F1200 E-14.21126
G1 F600 Z1.3
G92 E0
T1
G92 E0
M105
M109 S190
M104 T0 S0
M107 P1
G1 F1500 E-6.5
G1 F600 Z0.3
;MESH:Circuito recto 0.2mm.stl(2)
G0 F3600 X2.935 Y84.129
M104 S200
;TYPE:WALL-OUTER
G1 F1500 E0
G1 F1800 X2.935 Y84.523 E0.00958
G1 X12.735 Y84.523 E0.24793
G1 X12.735 Y84.929 E0.25781
G1 X2.935 Y84.929 E0.49616
G1 X2.935 Y85.323 E0.50574
G1 X12.735 Y85.323 E0.74409
G1 X12.735 Y85.729 E0.75397
G1 X2.935 Y85.729 E0.99232
G1 X2.935 Y86.123 E1.0019
G1 X12.735 Y86.123 E1.24025
G1 X12.735 Y86.529 E1.25012
G1 X2.929 Y86.529 E1.48862
G1 X2.929 Y86.523 E1.48877
M104 S185
G1 X12.729 Y86.523 E1.49725
G1 X12.729 Y86.129 E1.49751
G1 X2.929 Y86.129 E1.5062
G1 X2.929 Y85.723 E1.50665
G1 X12.729 Y85.723 E1.51534
G1 X12.729 Y85.329 E1.5156
G1 X2.929 Y85.329 E1.52429
G1 X2.929 Y84.923 E1.52474
G1 X12.729 Y84.923 E1.53344
G1 X12.729 Y84.529 E1.53369
G1 X2.929 Y84.529 E1.54239
G1 X2.929 Y84.123 E1.54283
G1 X12.735 Y84.123 E1.78133
G1 X12.735 Y84.129 E1.78147
G1 X2.935 Y84.129 E1.78874
G0 F3600 X2.935 Y84.227
G1 F1200 E-14.21126
G1 F600 Z1.3
G92 E0
T2
G92 E0
M105
M109 S190
M104 T1 S0
M107 P2
G1 F1500 E-6.5
G1 F600 Z0.3
;MESH:Circuito recto 0.2mm.stl
G0 F3600 X2.935 Y9.529
M104 S200
;TYPE:WALL-OUTER
G1 F1500 E0
G1 F1800 X2.935 Y9.923 E0.00958
G1 X12.735 Y9.923 E0.24793
G1 X12.735 Y10.329 E0.25781
G1 X2.935 Y10.329 E0.49616
G1 X2.935 Y10.723 E0.50574
G1 X12.735 Y10.723 E0.74409
G1 X12.735 Y11.129 E0.75397
G1 X2.935 Y11.129 E0.99232
G1 X2.935 Y11.523 E1.0019
G1 X12.735 Y11.523 E1.24025
G1 X12.735 Y11.929 E1.25012
G1 X2.929 Y11.929 E1.48862
G1 X2.929 Y11.923 E1.48877
M104 S185
G1 X12.729 Y11.923 E1.49725
G1 X12.729 Y11.529 E1.49751
G1 X2.929 Y11.529 E1.5062
G1 X2.929 Y11.123 E1.50665
G1 X12.729 Y11.123 E1.51534
G1 X12.729 Y10.729 E1.5156
G1 X2.929 Y10.729 E1.52429
G1 X2.929 Y10.323 E1.52474
G1 X12.729 Y10.323 E1.53344
G1 X12.729 Y9.929 E1.53369
G1 X2.929 Y9.929 E1.54239
G1 X2.929 Y9.523 E1.54283
G1 X12.735 Y9.523 E1.78133
G1 X12.735 Y9.529 E1.78147
G1 X2.935 Y9.529 E1.78874
G0 F3600 X2.935 Y9.627
G1 F1200 E-14.21126
G1 F600 Z1.3
G92 E0
T3
G92 E0
M105
M109 S190
M104 T2 S0
M107 P3
G1 F1500 E-6.5
;MESH:Circuito recto 0.2mm.stl(1)
G0 F3600 X113.935 Y9.627 Z1.3
G1 F600 Z0.3
G0 F3600 X113.935 Y5.929
M104 S200
;TYPE:WALL-OUTER
G1 F1500 E0
G1 F1800 X113.935 Y6.323 E0.00958
G1 X123.735 Y6.323 E0.24793
G1 X123.735 Y6.729 E0.25781
G1 X113.935 Y6.729 E0.49616
G1 X113.935 Y7.123 E0.50574
G1 X123.735 Y7.123 E0.74409
G1 X123.735 Y7.529 E0.75397
G1 X113.935 Y7.529 E0.99232
G1 X113.935 Y7.923 E1.0019
G1 X123.735 Y7.923 E1.24025
G1 X123.735 Y8.329 E1.25012
G1 X113.929 Y8.329 E1.48862
G1 X113.929 Y8.323 E1.48877
G1 X123.729 Y8.323 E1.49725
G1 X123.729 Y7.929 E1.49751
G1 X113.929 Y7.929 E1.5062
G1 X113.929 Y7.523 E1.50665
G1 X123.729 Y7.523 E1.51534
G1 X123.729 Y7.129 E1.5156
G1 X113.929 Y7.129 E1.52429
G1 X113.929 Y6.723 E1.52474
G1 X123.729 Y6.723 E1.53344
G1 X123.729 Y6.329 E1.53369
G1 X113.929 Y6.329 E1.54239
G1 X113.929 Y5.923 E1.54283
G1 X123.735 Y5.923 E1.78133
G1 X123.735 Y5.929 E1.78147
G1 X113.935 Y5.929 E1.78874
G0 F3600 X113.935 Y6.027
;TIME_ELAPSED:51.044077
G1 F1500 E-4.71126

M82 ;absolute extrusion mode
M104 S0
;End of Gcode
;SETTING_3 {"global_quality": "[general]\\nversion = 4\\nname = BW_Circuito_4E\\
;SETTING_3 ndefinition = custom\\n\\n[metadata]\\ntype = quality_changes\\nquali
;SETTING_3 ty_type = high\\nsetting_version = 16\\n\\n[values]\\nadhesion_type =
;SETTING_3  none\\nlayer_height = 0.15\\nretraction_combing = off\\n\\n", "extru
;SETTING_3 der_quality": ["[general]\\nversion = 4\\nname = BW_Circuito_4E\\ndef
;SETTING_3 inition = custom\\n\\n[metadata]\\ntype = quality_changes\\nintent_ca
;SETTING_3 tegory = default\\nquality_type = high\\nsetting_version = 16\\nposit
;SETTING_3 ion = 0\\n\\n[values]\\nbottom_layers = 0\\ncool_fan_enabled = False\
;SETTING_3 \ninfill_pattern = zigzag\\ninfill_sparse_density = 0\\nmaterial_fina
;SETTING_3 l_print_temperature = 200\\nmaterial_initial_print_temperature = 200\
;SETTING_3 \nspeed_print = 10\\ntop_layers = 0\\nwall_line_count = 1\\nwall_thic
;SETTING_3 kness = 1\\n\\n", "[general]\\nversion = 4\\nname = BW_Circuito_4E\\n
;SETTING_3 definition = custom\\n\\n[metadata]\\ntype = quality_changes\\nintent
;SETTING_3 _category = default\\nquality_type = high\\nsetting_version = 16\\npo
;SETTING_3 sition = 1\\n\\n[values]\\ninfill_sparse_density = 10\\n\\n", "[gener
;SETTING_3 al]\\nversion = 4\\nname = BW_Circuito_4E\\ndefinition = custom\\n\\n
;SETTING_3 [metadata]\\ntype = quality_changes\\nintent_category = default\\nqua
;SETTING_3 lity_type = high\\nsetting_version = 16\\nposition = 2\\n\\n[values]\
;SETTING_3 \ninfill_sparse_density = 10\\n\\n", "[general]\\nversion = 4\\nname 
;SETTING_3 = BW_Circuito_4E\\ndefinition = custom\\n\\n[metadata]\\ntype = quali
;SETTING_3 ty_changes\\nintent_category = default\\nquality_type = high\\nsettin
;SETTING_3 g_version = 16\\nposition = 3\\n\\n[values]\\ninfill_sparse_density =
;SETTING_3  10\\n\\n"]}
