;FLAVOR:Marlin
;TIME:53
;Filament used: 0.00178874m, 0.00178874m, 0.00178874m, 0.00178874m
;Layer height: 0.15
;MINX:139.647
;MINY:19.151
;MINZ:0.3
;MAXX:260.453
;MAXY:88.957
;MAXZ:1.3
;Generated with Cura_SteamEngine 4.8.0
M218 T1 Z5
M218 T2 Z10
M218 T3 Z15
T0
; deleted M10[49]
; deleted M10[49]
; deleted M10[49]
; deleted M10[49]
M105
; deleted M10[49]
M105
; deleted M10[49]
M105
; deleted M10[49]
M105
; deleted M10[49]
M82 ;absolute extrusion mode

G92 E0
G92 E0
M106 P0 S0 ; Close T0 valve
G1 F1500 E-6.5
G4 P50; Wait 50 miliseconds
;LAYER_COUNT:1
;LAYER:0
; deleted M107
; deleted M10[49]
; deleted M10[49]
; deleted M10[49]
; deleted M10[49]
; deleted M10[49]
; deleted M10[49]
;MESH:Circuito recto 0.2mm.stl(1)
G0 F3600 X250.653 Y82.957 Z0.3
;TYPE:WALL-OUTER
M106 P0 S255 ; Open T0 valve
G1 F1500 E0
G4 P50; Wait 50 miliseconds
G1 F300 X250.653 Y83.351 E0.00958
G1 X260.453 Y83.351 E0.24793
G1 X260.453 Y83.757 E0.25781
G1 X250.653 Y83.757 E0.49616
G1 X250.653 Y84.151 E0.50574
G1 X260.453 Y84.151 E0.74409
G1 X260.453 Y84.557 E0.75397
G1 X250.653 Y84.557 E0.99232
G1 X250.653 Y84.951 E1.0019
G1 X260.453 Y84.951 E1.24025
G1 X260.453 Y85.357 E1.25012
G1 X250.647 Y85.357 E1.48862
G1 X250.647 Y85.351 E1.48877
G1 X260.447 Y85.351 E1.49725
G1 X260.447 Y84.957 E1.49751
G1 X250.647 Y84.957 E1.5062
G1 X250.647 Y84.551 E1.50665
G1 X260.447 Y84.551 E1.51534
G1 X260.447 Y84.157 E1.5156
G1 X250.647 Y84.157 E1.52429
G1 X250.647 Y83.751 E1.52474
G1 X260.447 Y83.751 E1.53344
G1 X260.447 Y83.357 E1.53369
G1 X250.647 Y83.357 E1.54239
G1 X250.647 Y82.951 E1.54283
G1 X260.453 Y82.951 E1.78133
G1 X260.453 Y82.957 E1.78147
G1 X250.653 Y82.957 E1.78874
G0 F3600 X250.653 Y83.055
M106 P0 S0 ; Close T0 valve
G1 F1200 E-14.21126
G4 P50; Wait 50 miliseconds
G1 F600 Z1.3
G92 E0
T1
G92 E0
M105
; deleted M10[49]
; deleted M10[49]
; deleted M107 P1
M106 P1 S0 ; Close T1 valve
G1 F1500 E-6.5
G4 P50; Wait 50 miliseconds
G1 F600 Z0.3
;MESH:Circuito recto 0.2mm.stl
G0 F3600 X139.653 Y86.557
; deleted M10[49]
;TYPE:WALL-OUTER
M106 P1 S255 ; Open T1 valve
G1 F1500 E0
G4 P50; Wait 50 miliseconds
G1 F1800 X139.653 Y86.951 E0.00958
G1 X149.453 Y86.951 E0.24793
G1 X149.453 Y87.357 E0.25781
G1 X139.653 Y87.357 E0.49616
G1 X139.653 Y87.751 E0.50574
G1 X149.453 Y87.751 E0.74409
G1 X149.453 Y88.157 E0.75397
G1 X139.653 Y88.157 E0.99232
G1 X139.653 Y88.551 E1.0019
G1 X149.453 Y88.551 E1.24025
G1 X149.453 Y88.957 E1.25012
G1 X139.647 Y88.957 E1.48862
G1 X139.647 Y88.951 E1.48877
; deleted M10[49]
G1 X149.447 Y88.951 E1.49725
G1 X149.447 Y88.557 E1.49751
G1 X139.647 Y88.557 E1.5062
G1 X139.647 Y88.151 E1.50665
G1 X149.447 Y88.151 E1.51534
G1 X149.447 Y87.757 E1.5156
G1 X139.647 Y87.757 E1.52429
G1 X139.647 Y87.351 E1.52474
G1 X149.447 Y87.351 E1.53344
G1 X149.447 Y86.957 E1.53369
G1 X139.647 Y86.957 E1.54239
G1 X139.647 Y86.551 E1.54283
G1 X149.453 Y86.551 E1.78133
G1 X149.453 Y86.557 E1.78147
G1 X139.653 Y86.557 E1.78874
G0 F3600 X139.653 Y86.655
M106 P1 S0 ; Close T1 valve
G1 F1200 E-14.21126
G4 P50; Wait 50 miliseconds
G1 F600 Z1.3
G92 E0
T2
G92 E0
M105
; deleted M10[49]
; deleted M10[49]
; deleted M107 P2
M106 P2 S0 ; Close T2 valve
G1 F1500 E-6.5
G4 P50; Wait 50 miliseconds
G1 F600 Z0.3
;MESH:Circuito recto 0.2mm.stl(2)
G0 F3600 X139.653 Y19.157
; deleted M10[49]
;TYPE:WALL-OUTER
M106 P2 S255 ; Open T2 valve
G1 F1500 E0
G4 P50; Wait 50 miliseconds
G1 F1800 X139.653 Y19.551 E0.00958
G1 X149.453 Y19.551 E0.24793
G1 X149.453 Y19.957 E0.25781
G1 X139.653 Y19.957 E0.49616
G1 X139.653 Y20.351 E0.50574
G1 X149.453 Y20.351 E0.74409
G1 X149.453 Y20.757 E0.75397
G1 X139.653 Y20.757 E0.99232
G1 X139.653 Y21.151 E1.0019
G1 X149.453 Y21.151 E1.24025
G1 X149.453 Y21.557 E1.25012
G1 X139.647 Y21.557 E1.48862
G1 X139.647 Y21.551 E1.48877
; deleted M10[49]
G1 X149.447 Y21.551 E1.49725
G1 X149.447 Y21.157 E1.49751
G1 X139.647 Y21.157 E1.5062
G1 X139.647 Y20.751 E1.50665
G1 X149.447 Y20.751 E1.51534
G1 X149.447 Y20.357 E1.5156
G1 X139.647 Y20.357 E1.52429
G1 X139.647 Y19.951 E1.52474
G1 X149.447 Y19.951 E1.53344
G1 X149.447 Y19.557 E1.53369
G1 X139.647 Y19.557 E1.54239
G1 X139.647 Y19.151 E1.54283
G1 X149.453 Y19.151 E1.78133
G1 X149.453 Y19.157 E1.78147
G1 X139.653 Y19.157 E1.78874
G0 F3600 X139.653 Y19.255
M106 P2 S0 ; Close T2 valve
G1 F1200 E-14.21126
G4 P50; Wait 50 miliseconds
G1 F600 Z1.3
G92 E0
T3
G92 E0
M105
; deleted M10[49]
; deleted M10[49]
; deleted M107 P3
M106 P3 S0 ; Close T3 valve
G1 F1500 E-6.5
G4 P50; Wait 50 miliseconds
;MESH:Circuito recto 0.2mm.stl(3)
G0 F3600 X250.653 Y19.255 Z1.3
G1 F600 Z0.3
G0 F3600 X250.653 Y22.757
; deleted M10[49]
;TYPE:WALL-OUTER
M106 P3 S255 ; Open T3 valve
G1 F1500 E0
G4 P50; Wait 50 miliseconds
G1 F1800 X250.653 Y23.151 E0.00958
G1 X260.453 Y23.151 E0.24793
G1 X260.453 Y23.557 E0.25781
G1 X250.653 Y23.557 E0.49616
G1 X250.653 Y23.951 E0.50574
G1 X260.453 Y23.951 E0.74409
G1 X260.453 Y24.357 E0.75397
G1 X250.653 Y24.357 E0.99232
G1 X250.653 Y24.751 E1.0019
G1 X260.453 Y24.751 E1.24025
G1 X260.453 Y25.157 E1.25012
G1 X250.647 Y25.157 E1.48862
G1 X250.647 Y25.151 E1.48877
G1 X260.447 Y25.151 E1.49725
G1 X260.447 Y24.757 E1.49751
G1 X250.647 Y24.757 E1.5062
G1 X250.647 Y24.351 E1.50665
G1 X260.447 Y24.351 E1.51534
G1 X260.447 Y23.957 E1.5156
G1 X250.647 Y23.957 E1.52429
G1 X250.647 Y23.551 E1.52474
G1 X260.447 Y23.551 E1.53344
G1 X260.447 Y23.157 E1.53369
G1 X250.647 Y23.157 E1.54239
G1 X250.647 Y22.751 E1.54283
G1 X260.453 Y22.751 E1.78133
G1 X260.453 Y22.757 E1.78147
G1 X250.653 Y22.757 E1.78874
G0 F3600 X250.653 Y22.855
;TIME_ELAPSED:53.009957
M106 P3 S0 ; Close T3 valve
G1 F1500 E-4.71126
G4 P50; Wait 50 miliseconds

M82 ;absolute extrusion mode
; deleted M10[49]
;End of Gcode
;SETTING_3 {"extruder_quality": ["[general]\\nversion = 4\\nname = BW_Circuito_4
;SETTING_3 E\\ndefinition = custom\\n\\n[metadata]\\nsetting_version = 16\\ninte
;SETTING_3 nt_category = default\\ntype = quality_changes\\nquality_type = high\
;SETTING_3 \nposition = 0\\n\\n[values]\\nbottom_layers = 0\\ncool_fan_enabled =
;SETTING_3  False\\ninfill_pattern = zigzag\\ninfill_sparse_density = 0\\nmateri
;SETTING_3 al_final_print_temperature = 200\\nmaterial_initial_print_temperature
;SETTING_3  = 200\\nspeed_print = 10\\ntop_layers = 0\\nwall_line_count = 1\\nwa
;SETTING_3 ll_thickness = 1\\n\\n", "[general]\\nversion = 4\\nname = BW_Circuit
;SETTING_3 o_4E\\ndefinition = custom\\n\\n[metadata]\\nsetting_version = 16\\ni
;SETTING_3 ntent_category = default\\ntype = quality_changes\\nquality_type = hi
;SETTING_3 gh\\nposition = 1\\n\\n[values]\\ninfill_sparse_density = 10\\n\\n", 
;SETTING_3 "[general]\\nversion = 4\\nname = BW_Circuito_4E\\ndefinition = custo
;SETTING_3 m\\n\\n[metadata]\\nsetting_version = 16\\nintent_category = default\
;SETTING_3 \ntype = quality_changes\\nquality_type = high\\nposition = 2\\n\\n[v
;SETTING_3 alues]\\ninfill_sparse_density = 10\\n\\n", "[general]\\nversion = 4\
;SETTING_3 \nname = BW_Circuito_4E\\ndefinition = custom\\n\\n[metadata]\\nsetti
;SETTING_3 ng_version = 16\\nintent_category = default\\ntype = quality_changes\
;SETTING_3 \nquality_type = high\\nposition = 3\\n\\n[values]\\ninfill_sparse_de
;SETTING_3 nsity = 10\\n\\n"], "global_quality": "[general]\\nversion = 4\\nname
;SETTING_3  = BW_Circuito_4E\\ndefinition = custom\\n\\n[metadata]\\nsetting_ver
;SETTING_3 sion = 16\\ntype = quality_changes\\nquality_type = high\\n\\n[values
;SETTING_3 ]\\nadhesion_type = none\\nlayer_height = 0.15\\nretraction_combing =
;SETTING_3  off\\n\\n"}
