; generated by Slic3r 1.2.9 on 2016-12-12 at 18:25:59

; external perimeters extrusion width = 0.20mm
; perimeters extrusion width = 0.21mm
; infill extrusion width = 0.21mm
; solid infill extrusion width = 0.21mm
; top infill extrusion width = 0.21mm

; external perimeters extrusion width = 0.20mm
; perimeters extrusion width = 0.21mm
; infill extrusion width = 0.21mm
; solid infill extrusion width = 0.21mm
; top infill extrusion width = 0.21mm

M104 S200 T0 ; set temperature
M104 S200 T1 ; set temperature
;START GCODE
G21;   Set Units to [mm]
G90;   Use absolute coordinates
M204 S500;   Set default acceleration
;G28 X ; X-homing
;G28 Y ; Y_homing
;G1 X70 Y31 F2600; XY coordinates for Z-homing


M109 S200 T0 ; wait for temperature to be reached
M109 S200 T1 ; wait for temperature to be reached
G21 ; set units to millimeters
G90 ; use absolute coordinates
M82 ; use absolute distances for extrusion
G92 E0
T0
G92 E0
G1 E-2.00000 F2400.00000
G92 E0
G1 Z14.000 F2100.000
G1 X123.117 Y39.117 F2100.000
G1 Z10.200 F2100.000
G1 E2.00000 F2400.00000
G1 X123.200 Y39.100 E2.00040 F780.000
G1 X132.800 Y39.100 E2.04578
G1 X132.883 Y39.117 E2.04618
G1 X132.900 Y39.200 E2.04658
G1 X132.900 Y48.800 E2.09197
G1 X132.883 Y48.883 E2.09237
G1 X132.800 Y48.900 E2.09277
G1 X123.200 Y48.900 E2.13815
G1 X123.117 Y48.883 E2.13855
G1 X123.100 Y48.800 E2.13895
G1 X123.100 Y39.200 E2.18433
G1 X123.117 Y39.117 E2.18473
M104 S37 T0 ; set temperature
M104 S37 T1 ; set temperature
G1 E0.18473 F2400.00000
G92 E0
G1 Z14.200 F2100.000
;CHANGE PRINTHEAD

T1
G92 E0
G1 Z10.400 F2100.000
G1 X24.200 Y42.100 E0.00040 F780.000
G1 X33.800 Y42.100 E0.04578
G1 X33.883 Y42.117 E0.04618
G1 X33.900 Y42.200 E0.04658
G1 X33.900 Y51.800 E0.09197
G1 X33.883 Y51.883 E0.09237
G1 X33.800 Y51.900 E0.09277
G1 X24.200 Y51.900 E0.13815
G1 X24.117 Y51.883 E0.13855
G1 X24.100 Y51.800 E0.13895
G1 X24.100 Y42.200 E0.18433
G1 X24.117 Y42.117 E0.18473
G1 E-1.81527 F2400.00000
G92 E0
G1 Z14.400 F2100.000
;CHANGE PRINTHEAD

T0
G92 E0
G1 Z10.600 F2100.000
G1 E2.00000 F2400.00000
G1 X123.200 Y39.100 E2.00040 F780.000
G1 X132.800 Y39.100 E2.04578
G1 X132.883 Y39.117 E2.04618
G1 X132.900 Y39.200 E2.04658
G1 X132.900 Y48.800 E2.09197
G1 X132.883 Y48.883 E2.09237
G1 X132.800 Y48.900 E2.09277
G1 X123.200 Y48.900 E2.13815
G1 X123.117 Y48.883 E2.13855
G1 X123.100 Y48.800 E2.13895
G1 X123.100 Y39.200 E2.18433
G1 X123.117 Y39.117 E2.18473
G1 E0.18473 F2400.00000
G92 E0
G1 Z14.600 F2100.000
;CHANGE PRINTHEAD

T1
G92 E0
G1 Z10.800 F2100.000
G1 E2.00000 F2400.00000
G1 X24.200 Y42.100 E2.00040 F780.000
G1 X33.800 Y42.100 E2.04578
G1 X33.883 Y42.117 E2.04618
G1 X33.900 Y42.200 E2.04658
G1 X33.900 Y51.800 E2.09197
G1 X33.883 Y51.883 E2.09237
G1 X33.800 Y51.900 E2.09277
G1 X24.200 Y51.900 E2.13815
G1 X24.117 Y51.883 E2.13855
G1 X24.100 Y51.800 E2.13895
G1 X24.100 Y42.200 E2.18433
G1 X24.117 Y42.117 E2.18473
G1 E0.18473 F2400.00000
G92 E0
G1 Z14.800 F2100.000
;END GCODE



; filament used = 0.4mm (0.0cm3)
; filament used = 0.4mm (0.0cm3)

; avoid_crossing_perimeters = 0
; bed_shape = 0x0,256x0,256x88,0x88
; bed_temperature = 0
; before_layer_gcode = 
; bridge_acceleration = 0
; bridge_fan_speed = 100
; brim_width = 0
; complete_objects = 0
; cooling = 0
; default_acceleration = 0
; disable_fan_first_layers = 3
; duplicate_distance = 6
; end_gcode = ;END GCODE\n\n\n
; extruder_clearance_height = 20
; extruder_clearance_radius = 20
; extruder_offset = 0x0,99x-3,99x-3
; extrusion_axis = E
; extrusion_multiplier = 1,1,1
; fan_always_on = 0
; fan_below_layer_time = 60
; filament_colour = #FFFFFF;#FFFFFF;#FFFFFF
; filament_diameter = 3,3,3
; first_layer_acceleration = 0
; first_layer_bed_temperature = 0
; first_layer_extrusion_width = 0
; first_layer_speed = 13
; first_layer_temperature = 200,200,200
; gcode_arcs = 0
; gcode_comments = 0
; gcode_flavor = reprap
; infill_acceleration = 0
; infill_first = 0
; layer_gcode = 
; max_fan_speed = 100
; max_print_speed = 13
; max_volumetric_speed = 0
; min_fan_speed = 35
; min_print_speed = 10
; min_skirt_length = 0
; notes = 
; nozzle_diameter = 0.2,0.2,0.2
; only_retract_when_crossing_perimeters = 0
; ooze_prevention = 0
; output_filename_format = [input_filename_base].gcode
; perimeter_acceleration = 0
; post_process = 
; pressure_advance = 0
; resolution = 0
; retract_before_travel = 0,0,0
; retract_layer_change = 1,1,1
; retract_length = 2,2,2
; retract_length_toolchange = 0,0,0
; retract_lift = 4,4,4
; retract_restart_extra = 0,0,0
; retract_restart_extra_toolchange = 0,0,0
; retract_speed = 40,40,40
; skirt_distance = 6
; skirt_height = 1
; skirts = 0
; slowdown_below_layer_time = 5
; spiral_vase = 0
; standby_temperature_delta = -5
; start_gcode = ;START GCODE\nG21;   Set Units to [mm]\nG90;   Use absolute coordinates\nM204 S500;   Set default acceleration\n;G28 X ; X-homing\n;G28 Y ; Y_homing\n;G1 X70 Y31 F2600; XY coordinates for Z-homing\n\n
; temperature = 37,37,37
; threads = 2
; toolchange_gcode = ;CHANGE PRINTHEAD\n
; travel_speed = 35
; use_firmware_retraction = 0
; use_relative_e_distances = 0
; use_volumetric_e = 0
; vibration_limit = 0
; wipe = 0,0,0
; z_offset = 10
; dont_support_bridges = 1
; extrusion_width = 0
; first_layer_height = 0.2
; infill_only_where_needed = 0
; interface_shells = 0
; layer_height = 0.2
; raft_layers = 0
; seam_position = random
; support_material = 0
; support_material_angle = 0
; support_material_contact_distance = 0.2
; support_material_enforce_layers = 0
; support_material_extruder = 1
; support_material_extrusion_width = 0
; support_material_interface_extruder = 1
; support_material_interface_layers = 3
; support_material_interface_spacing = 0
; support_material_interface_speed = 100%
; support_material_pattern = pillars
; support_material_spacing = 2.5
; support_material_speed = 60
; support_material_threshold = 0
; xy_size_compensation = 0
; bottom_solid_layers = 1
; bridge_flow_ratio = 1
; bridge_speed = 13
; external_fill_pattern = rectilinear
; external_perimeter_extrusion_width = 0
; external_perimeter_speed = 13
; external_perimeters_first = 1
; extra_perimeters = 0
; fill_angle = 45
; fill_density = 15%
; fill_pattern = line
; gap_fill_speed = 13
; infill_every_layers = 1
; infill_extruder = 1
; infill_extrusion_width = 0
; infill_overlap = 0
; infill_speed = 13
; overhangs = 1
; perimeter_extruder = 1
; perimeter_extrusion_width = 0
; perimeter_speed = 13
; perimeters = 1
; small_perimeter_speed = 13
; solid_infill_below_area = 70
; solid_infill_every_layers = 0
; solid_infill_extruder = 1
; solid_infill_extrusion_width = 0
; solid_infill_speed = 13
; thin_walls = 1
; top_infill_extrusion_width = 0
; top_solid_infill_speed = 13
; top_solid_layers = 1
